X: 16
T:Furze Field, The (Bampton)
M:6/8
L:1/8
O:England; Oxfordshire; Bampton.
B:Lionel Bacon, A Handbook of Morris Dances
Z:http://www.themorrisring.org/music/handbook-morris-dances
P:A(AB2)4
Q:100
K:G
P:A
D|G>GG FGA|BAG A>Bc|dBd cAF|G3G2D|G>GG FGA|BAG A>Bc|dBd cAF|G3G2|
P:B
B/c/|d2d ded|cAF D>EF|GAB cde|dcB A2D|G>GG FGA|BAG A>Bc|dBd cAF|G3G2|

